assets/icones/driveInProductionIcone.svg

<svg width="106" height="34" viewBox="0 0 106 34" fill="none" xmlns="http://www.w3.org/2000/svg">
<path d="M104.041 16.1851C103.845 16.1268 103.665 16.1542 103.503 16.2676C101.752 17.6344 100.372 18.6544 99.3654 19.324C98.3585 19.9903 97.6274 20.4024 97.1757 20.5569C96.7239 20.7149 96.4929 20.6565 96.4826 20.3852C96.4722 20.1105 96.5688 19.7155 96.7757 19.197C96.9826 18.6784 97.2515 18.0774 97.586 17.4009C97.9205 16.7243 98.2033 16.0546 98.4412 15.3918C98.6792 14.729 98.8137 14.1246 98.8378 13.5786C98.8654 13.0325 98.6792 12.6341 98.2826 12.3834C97.7378 12.0331 97.1343 11.9576 96.4688 12.1671C95.8032 12.3766 95.1067 12.7578 94.386 13.3175C93.6618 13.8739 92.9342 14.5504 92.2101 15.3369C91.4824 16.1233 90.7893 16.9201 90.1238 17.7134C89.9204 17.9606 89.7169 18.1976 89.5238 18.4346C89.0858 18.9703 88.6789 19.4786 88.2996 19.9697C88.0169 20.3337 87.7582 20.6565 87.5306 20.9347C87.3168 21.1957 87.1237 21.4155 86.9582 21.601C87.0444 21.3812 87.2134 21.0343 87.4582 20.5707C87.7031 20.1036 87.9789 19.6022 88.2789 19.0699C88.5858 18.5376 88.8927 18.0225 89.21 17.5314C89.4341 17.1845 89.6445 16.896 89.8376 16.6694C89.9203 16.5766 89.9962 16.4908 90.0721 16.4221C90.1755 16.3191 90.2341 16.2057 90.2548 16.0787C90.2721 15.9482 90.2514 15.8074 90.1824 15.6494C90.0514 15.3403 89.8272 15.069 89.5169 14.8389C89.2065 14.6088 88.8583 14.468 88.472 14.4131C88.0824 14.3616 87.7375 14.4818 87.4375 14.7771C87.3479 14.8698 87.2548 14.9832 87.1582 15.1068C87.1582 15.1068 87.1582 15.1102 87.1548 15.1137C86.9548 15.3712 86.7375 15.6975 86.4996 16.0856C86.1513 16.6659 85.803 17.3116 85.4616 18.0225C85.1168 18.7334 84.803 19.4717 84.5237 20.2479C84.2409 21.0206 84.0375 21.7383 83.9064 22.3977C83.7788 23.0571 83.7513 23.6203 83.834 24.0873C83.9133 24.5544 84.1375 24.86 84.503 24.9974C85.0685 25.1966 85.6789 25.0901 86.3341 24.6746C86.7513 24.4102 87.1582 24.0839 87.5548 23.6958C87.7789 23.476 87.9996 23.2356 88.2169 22.9746C88.8341 22.2122 89.4583 21.4155 90.0859 20.5878C90.7135 19.7636 91.3273 18.9772 91.9307 18.2285C91.9307 18.2251 91.9376 18.2217 91.9411 18.2148C92.548 17.4627 93.148 16.7964 93.7377 16.2057C94.3308 15.6185 94.8825 15.1858 95.3998 14.9076C95.1343 15.4399 94.7929 16.1165 94.3825 16.9372C93.9687 17.7615 93.6273 18.5857 93.3652 19.4133C93.0963 20.241 92.9825 21 93.0239 21.6834C93.0618 22.3702 93.3928 22.8476 94.0032 23.1086C94.4929 23.3112 95.0412 23.349 95.6481 23.2185C96.2584 23.088 96.8998 22.8544 97.5722 22.5145C98.2447 22.1779 98.924 21.7692 99.5999 21.3022C100.279 20.8317 100.917 20.3612 101.514 19.8941C102.107 19.4305 102.655 18.9875 103.159 18.5788C103.659 18.1701 104.048 17.8611 104.331 17.655C104.565 17.497 104.683 17.3081 104.686 17.0884C104.686 16.8686 104.634 16.6797 104.521 16.5217C104.407 16.3603 104.252 16.2504 104.055 16.192V16.1851H104.041Z" fill="#FFDA00"/>
<path d="M105.317 1.42476C105.2 1.09851 105.024 0.974875 104.783 1.05043C104.49 1.15689 103.986 1.43163 103.293 1.54839C102.986 1.59991 102.134 1.66172 102.128 1.64799L70.8372 3.14188C69.6716 3.24491 68.5682 3.24491 68.1854 3.38915C67.9578 3.475 67.7337 3.90429 67.6199 4.30609C67.5061 4.7079 67.4509 5.12688 67.4543 5.56303C67.4578 5.99574 67.5199 6.37694 67.6302 6.7032C67.7406 7.02945 67.9095 7.14278 68.1475 7.04318C69.1751 6.61047 70.0923 6.16058 70.982 6.01978C72.0545 5.8515 78.2339 5.57333 85.0237 5.29515C85.7237 5.26425 86.4306 5.23677 87.141 5.2093C86.7237 5.86524 86.2961 6.54522 85.8616 7.25954C84.972 8.7294 84.0823 10.2885 83.1995 11.9335C83.034 12.2426 82.8685 12.5517 82.7064 12.8642C82.4926 13.2763 82.2788 13.6884 82.0719 14.1074C81.5891 15.0621 81.1236 16.034 80.665 17.0265C79.8546 18.778 79.1167 20.5569 78.4442 22.3565C77.7718 24.156 77.2063 25.9281 76.7477 27.6693C75.789 27.7895 72.2303 27.8856 71.1993 27.9646C70.7889 27.9989 70.4682 28.2016 70.2303 28.569C70.1785 28.648 70.1303 28.7304 70.0854 28.8129C69.9303 29.1082 69.8372 29.4139 69.8027 29.7332C69.7613 30.1385 69.8096 30.4956 69.9578 30.8082C70.1027 31.1172 70.3751 31.234 70.7855 31.155C72.551 30.8116 76.7373 30.5506 78.2132 30.372C79.6857 30.19 91.0169 28.806 92.579 28.7133C92.9618 28.6789 93.2756 28.4832 93.5135 28.1226C93.7515 27.7654 93.8963 27.3842 93.9549 26.979C94.0101 26.5737 93.9584 26.2166 93.8032 25.9041C93.6446 25.595 93.3618 25.4679 92.9549 25.5229C92.4549 25.6053 91.948 25.6877 91.448 25.7701C91.1066 25.8251 86.3272 26.4398 83.0926 26.8553C81.5236 27.058 80.3201 27.2091 80.165 27.2297C80.2443 26.9 80.3408 26.5394 80.4512 26.1445C80.6339 25.5091 80.8615 24.7845 81.134 23.974C81.5753 22.6587 82.1236 21.23 82.7823 19.6778C83.4409 18.1289 84.1995 16.4977 85.0582 14.7908C85.9134 13.0806 86.8686 11.3841 87.9203 9.69786C88.9238 8.0975 90.01 6.54522 91.179 5.05476C98.1861 4.78002 103.997 4.77658 104.814 4.47094C105.038 4.41942 105.21 4.19963 105.324 3.80813C105.438 3.41662 105.497 3.00451 105.5 2.56836C105.5 2.13222 105.445 1.75445 105.324 1.42819L105.317 1.42476Z" fill="#FFDA00"/>
<path d="M20.1326 0.476909C13.1946 1.67546 7.85306 4.42629 6.49786 8.15932C5.65991 10.5083 6.6358 12.5861 7.68754 13.5579C8.06341 13.9048 8.36687 13.7537 8.5186 13.187C9.2531 10.5083 12.0049 7.13248 19.2947 5.39131C16.0394 10.371 11.8497 18.5136 11.4773 21.8688C11.1773 24.599 13.1221 26.0723 15.2463 25.7633C15.6705 25.7014 16.0532 25.5675 16.467 25.3889C16.6946 25.2756 16.7567 25.1107 16.6946 24.7673C16.0532 21.9615 22.3189 7.18399 24.3431 5.01011C24.4362 4.8487 24.5258 4.68729 24.6189 4.52932C29.857 4.08287 31.6087 6.5933 29.557 13.0222C26.8673 21.3605 21.3947 28.0092 13.667 28.6034C4.26333 29.2284 2.89089 21.9409 3.44952 19.5267C3.5978 18.8913 3.47021 18.7471 2.98055 19.0253C1.89432 19.6297 0.949467 21.0618 0.611529 22.7995C-0.322974 27.9989 4.66679 34.5927 13.6394 33.9574C22.8086 33.3152 30.6846 25.8835 34.064 15.3094C37.5951 4.14468 32.7743 -1.78626 20.1326 0.476909Z" fill="#FFDA00"/>
<path d="M54.9851 6.71693C56.1576 6.92299 57.3679 5.6111 57.8783 4.54305C58.4955 3.23117 58.6921 1.66859 57.6334 1.51062C56.7541 1.36294 55.5231 2.18029 54.8575 3.35137C53.7747 5.20243 53.8127 6.50744 54.9851 6.71693Z" fill="#FFDA00"/>
<path d="M74.3683 9.11403C74.789 9.07626 75.0062 9.28918 74.9649 9.78715C74.9131 10.4053 73.6752 14.3856 69.2337 15.227C70.6751 12.2907 72.8683 9.25484 74.3683 9.11747V9.11403ZM67.4578 24.1045C72.5545 23.5997 76.4442 17.7752 78.9098 13.6919C79.1856 13.2592 78.7305 13.0085 78.2511 13.0497C77.9822 13.0737 77.7029 13.1836 77.5339 13.4343C75.7787 16.2092 72.8717 20.9587 69.4234 21.2953C68.1647 21.4189 67.644 20.8866 67.7544 19.6263C67.813 18.9497 68.0682 18.0534 68.4199 17.0849C74.0028 16.7964 77.0718 11.2055 77.2821 8.76374C77.4132 7.23894 76.4683 6.47653 74.7924 6.63108C71.2199 6.9642 67.5716 11.2295 65.4612 15.3094C64.6853 16.3981 64.1301 16.9304 63.1646 17.0265C62.9543 17.0471 62.806 17.0334 62.6301 17.0231C64.675 13.9666 66.1992 10.814 66.4578 9.50897C66.7371 7.9979 65.6922 6.99511 63.7577 7.01571C63.5198 7.01228 63.4439 7.19429 63.5439 7.44499C63.6681 7.72317 63.6336 8.13527 63.6163 8.31042C63.5267 9.36817 62.4611 11.7138 61.1232 14.1212C60.7197 13.9872 59.8611 14.626 59.3921 15.5738C58.9955 16.3981 58.8059 17.2051 59.1093 17.4936C57.8093 19.458 56.5852 20.9175 55.9265 20.9828C55.5368 21.0206 55.5162 20.5569 55.5403 20.2925C55.6817 18.6475 58.1886 13.3656 60.0301 10.2714C60.4439 9.59139 59.53 9.15868 58.6335 9.24797C58.1231 9.29948 57.63 9.4918 57.3265 9.93139C56.6748 10.8483 55.1506 13.5786 53.8747 16.2676C53.2471 17.2978 52.2644 18.7746 51.4437 18.8536C50.9954 18.8948 50.7885 18.5376 50.8505 17.8027C50.9712 16.3946 53.0644 12.1224 54.8713 9.44372C55.2851 8.79121 54.523 8.31386 53.623 8.39971C53.0851 8.45123 52.4954 8.70879 52.123 9.26858C51.4919 10.1718 49.3747 13.4206 48.0298 16.3878C45.6228 20.2101 43.84 22.8098 42.7469 22.8957C42.6262 22.906 42.0917 22.9163 42.1504 22.2122C42.3124 20.3371 46.6987 13.922 46.8918 11.6863C46.9711 10.7762 46.4091 10.0378 45.2194 9.72533C44.6401 9.57079 42.8055 9.44716 42.8297 9.15181C42.8435 9.00414 42.9504 8.79465 43.2124 8.50961C43.7711 7.88457 43.0676 7.41408 42.2607 7.47247C41.7503 7.51024 41.2262 7.75064 40.9434 8.26578C38.8675 11.6554 34.1985 19.2622 32.0674 22.5934C31.2087 23.9156 32.0777 24.5544 33.1226 24.5029C33.9571 24.4617 34.9192 24.0015 35.2606 23.1635C36.6123 19.877 39.6331 13.1458 41.0365 10.972C41.6607 10.9891 43.5607 11.3429 43.478 12.3079C43.3159 14.1967 38.102 20.1963 37.771 24.0324C37.6123 25.8525 38.6055 26.7557 40.5503 26.6149C42.0779 26.505 43.4538 25.3443 44.7608 23.634C45.4125 22.7789 46.116 21.7898 46.8918 20.6222C47.0022 21.6593 47.6712 22.2775 49.0781 22.1539C50.2264 22.0508 51.2126 21.5117 52.0782 20.7493C51.9713 21.1339 51.9023 21.4739 51.8782 21.7486C51.7368 23.3936 52.9989 24.6128 54.5575 24.4617C56.7162 24.2522 59.2852 21.6662 61.5094 18.6475C61.8853 18.754 62.2991 18.802 62.7784 18.754C63.2749 18.7024 63.7336 18.5616 64.1681 18.335C63.8681 19.2485 63.6819 20.0864 63.6439 20.7905C63.4922 23.2219 65.0026 24.3483 67.4612 24.1045H67.4578Z" fill="#FFDA00"/>
<path d="M57.9645 28.1191C57.8748 28.1191 57.8024 28.1501 57.7369 28.2119C57.6748 28.2771 57.6438 28.3492 57.6438 28.4351C57.6438 28.5278 57.6748 28.6034 57.7369 28.6652C57.8024 28.7304 57.8783 28.7613 57.9679 28.7613C58.0576 28.7613 58.1335 28.7304 58.1955 28.6652C58.2576 28.6034 58.2886 28.5278 58.2886 28.4385C58.2886 28.3492 58.2576 28.2737 58.1955 28.2119C58.13 28.1501 58.0541 28.1191 57.9645 28.1191Z" fill="#FFDA00"/>
<path d="M30.6777 29.6268H30.5053V28.6824H30.657C31.0881 28.6824 31.3053 28.8369 31.3053 29.146C31.3053 29.4551 31.0949 29.6268 30.6777 29.6268ZM31.1398 28.3183C31.0087 28.284 30.8191 28.2668 30.5673 28.2668H30.0501V31.2683H30.5053V30.0492H30.7191C31.0329 30.0492 31.2812 29.9702 31.4674 29.8054C31.6536 29.6474 31.7432 29.4276 31.7432 29.1529C31.7432 28.8953 31.657 28.6824 31.4846 28.5141C31.3846 28.4145 31.2708 28.3492 31.1398 28.3149V28.3183Z" fill="#FFDA00"/>
<path d="M33.9605 29.6439V28.6892H34.1226C34.5398 28.6892 34.7536 28.8438 34.7536 29.1494C34.7536 29.4757 34.5364 29.6439 34.1054 29.6439H33.9605ZM35.0123 29.6955C35.1364 29.5409 35.1985 29.3589 35.1985 29.146C35.1985 28.8712 35.0985 28.6514 34.9054 28.4866C34.7261 28.3389 34.4398 28.2634 34.0433 28.2634H33.5088V31.2649H33.964V30.0355H34.0433L34.9054 31.2649H35.464L34.5295 29.9839C34.733 29.9427 34.8916 29.8431 35.0157 29.692L35.0123 29.6955Z" fill="#FFDA00"/>
<path d="M39.3537 30.5712C39.1365 30.791 38.8675 30.8974 38.5537 30.8974C38.2606 30.8974 38.002 30.791 37.7813 30.5746C37.5572 30.3617 37.4468 30.087 37.4468 29.7573C37.4468 29.4276 37.5537 29.1769 37.771 28.9605C37.9847 28.7407 38.2503 28.6343 38.5641 28.6343C38.8779 28.6343 39.1434 28.7442 39.3572 28.9605C39.571 29.1769 39.6813 29.4448 39.6813 29.7676C39.6813 30.0904 39.571 30.3514 39.3537 30.5712ZM38.571 28.2084C38.133 28.2084 37.7641 28.363 37.4503 28.6652C37.1365 28.9674 36.9847 29.3314 36.9847 29.7538C36.9847 30.2346 37.1571 30.6261 37.4985 30.9215C37.8089 31.1894 38.1606 31.3233 38.5468 31.3233C38.9882 31.3233 39.3641 31.1722 39.6744 30.87C39.9848 30.5678 40.14 30.2003 40.14 29.771C40.14 29.3417 39.9848 28.9777 39.6779 28.6686C39.371 28.363 39.002 28.2084 38.571 28.2084Z" fill="#FFDA00"/>
<path d="M43.54 30.5609C43.4331 30.6605 43.309 30.7292 43.1745 30.7773C43.0366 30.8185 42.8676 30.8391 42.6642 30.8391H42.4607V28.6892H42.6642C43.0538 28.6892 43.3469 28.7819 43.5469 28.964C43.7676 29.1666 43.8814 29.4345 43.8814 29.7641C43.8814 30.0938 43.7676 30.3548 43.5435 30.5575L43.54 30.5609ZM43.3538 28.3527C43.178 28.2943 42.9366 28.2634 42.6331 28.2634H41.9986V31.2649H42.6228C42.9297 31.2649 43.1676 31.2374 43.3331 31.1825C43.5125 31.1241 43.6814 31.0279 43.8435 30.8871C44.1676 30.6021 44.3297 30.2278 44.3297 29.7676C44.3297 29.3074 44.1745 28.9365 43.8642 28.6515C43.709 28.5106 43.54 28.4145 43.3504 28.3561L43.3538 28.3527Z" fill="#FFDA00"/>
<path d="M47.9781 30.0732C47.9781 30.3342 47.9367 30.5266 47.8505 30.6399C47.7229 30.8116 47.5436 30.8974 47.316 30.8974C47.0884 30.8974 46.9091 30.8116 46.7815 30.6399C46.6953 30.5197 46.6539 30.3308 46.6539 30.0732V28.2668H46.1987V30.2003C46.1987 30.5162 46.2987 30.7807 46.4987 30.9833C46.7194 31.2134 46.9918 31.3267 47.316 31.3267C47.6401 31.3267 47.916 31.2134 48.1367 30.9833C48.3332 30.7807 48.4333 30.5197 48.4333 30.2003V28.2668H47.9781V30.0732Z" fill="#FFDA00"/>
<path d="M50.6781 28.7579C50.423 29.0601 50.2954 29.4001 50.2954 29.7813C50.2954 30.2072 50.4471 30.5712 50.7505 30.8734C51.0574 31.1756 51.423 31.3233 51.8575 31.3233C52.1437 31.3233 52.4161 31.2512 52.6782 31.1035V30.554C52.6058 30.6158 52.5333 30.6708 52.4644 30.712C52.3989 30.7566 52.3333 30.791 52.2713 30.8185C52.1609 30.87 52.023 30.8974 51.8609 30.8974C51.5506 30.8974 51.2885 30.7875 51.0747 30.5712C50.8609 30.3548 50.754 30.0904 50.754 29.7744C50.754 29.4585 50.8609 29.1838 51.0747 28.9674C51.2885 28.7442 51.5471 28.6343 51.8575 28.6343C52.1402 28.6343 52.4126 28.7442 52.6747 28.964V28.4248C52.423 28.2771 52.1575 28.205 51.8885 28.205C51.3919 28.205 50.985 28.3904 50.6747 28.7545L50.6781 28.7579Z" fill="#FFDA00"/>
<path d="M54.223 28.6927H54.9161V31.2683H55.3748V28.6927H56.0644V28.2668H54.223V28.6927Z" fill="#FFDA00"/>
<path d="M58.1886 29.3761H57.7472V31.2683H58.1886V29.3761Z" fill="#FFDA00"/>
<path d="M62.337 30.5712C62.1198 30.791 61.8508 30.8974 61.537 30.8974C61.2473 30.8974 60.9887 30.791 60.7645 30.5746C60.5404 30.3617 60.4301 30.087 60.4301 29.7573C60.4301 29.4276 60.537 29.1769 60.7542 28.9605C60.968 28.7407 61.2335 28.6343 61.5473 28.6343C61.8611 28.6343 62.1301 28.7442 62.3405 28.9605C62.5542 29.1769 62.6646 29.4448 62.6646 29.7676C62.6646 30.0904 62.5577 30.3514 62.337 30.5712ZM61.5542 28.2084C61.1197 28.2084 60.7473 28.363 60.437 28.6652C60.1232 28.9674 59.9714 29.3314 59.9714 29.7538C59.9714 30.2346 60.1439 30.6261 60.4818 30.9215C60.7921 31.1894 61.1439 31.3233 61.5301 31.3233C61.9715 31.3233 62.3473 31.1722 62.6577 30.87C62.968 30.5678 63.1232 30.2003 63.1232 29.771C63.1232 29.3417 62.968 28.9777 62.6611 28.6686C62.3542 28.363 61.9853 28.2084 61.5542 28.2084Z" fill="#FFDA00"/>
<path d="M67.1888 30.3514L64.9853 28.0608V31.2683H65.4405V29.1666L67.6406 31.4504V28.2668H67.1888V30.3514Z" fill="#FFDA00"/>
</svg>

<svg width="106" height="34" fill="none" xmlns="http://www.w3.org/2000/svg"><path d="M104.041 16.185a.597.597 0 00-.538.083c-1.751 1.366-3.131 2.386-4.138 3.056-1.006.666-1.738 1.078-2.19 1.233-.451.158-.682.1-.692-.172-.01-.275.086-.67.293-1.188.207-.519.475-1.12.81-1.796.335-.677.617-1.346.855-2.01.238-.662.373-1.266.397-1.812.027-.546-.159-.945-.555-1.196-.545-.35-1.149-.425-1.814-.216-.666.21-1.362.59-2.083 1.15a17.415 17.415 0 00-2.176 2.02 64.99 64.99 0 00-2.086 2.376c-.204.248-.407.485-.6.722A71.004 71.004 0 0088.3 19.97a48.71 48.71 0 01-.77.965c-.213.26-.406.48-.572.666.086-.22.255-.567.5-1.03.245-.467.52-.969.82-1.501a35.66 35.66 0 01.932-1.539c.224-.346.434-.635.628-.862.082-.092.158-.178.234-.247a.614.614 0 00.183-.343.796.796 0 00-.073-.43 1.975 1.975 0 00-.665-.81c-.31-.23-.659-.371-1.045-.426-.39-.051-.734.069-1.034.364-.09.093-.183.206-.28.33 0 0 0 .003-.003.007-.2.257-.418.583-.655.972a23.73 23.73 0 00-1.038 1.937c-.345.71-.659 1.449-.938 2.225-.283.773-.487 1.49-.618 2.15-.127.66-.155 1.222-.072 1.69.08.466.303.772.669.91.566.199 1.176.092 1.831-.323.417-.265.824-.591 1.22-.98.225-.219.446-.46.663-.72a95.504 95.504 0 001.869-2.387c.627-.824 1.241-1.61 1.845-2.36 0-.003.007-.006.01-.013a25.535 25.535 0 011.797-2.01c.593-.586 1.144-1.02 1.662-1.297-.266.532-.607 1.208-1.018 2.03a16.895 16.895 0 00-1.017 2.475c-.269.828-.382 1.587-.341 2.27.038.687.369 1.165.98 1.426.489.202 1.037.24 1.644.11a7.996 7.996 0 001.924-.704 16.898 16.898 0 002.028-1.213c.679-.47 1.317-.94 1.914-1.408.593-.463 1.141-.906 1.645-1.315.5-.409.889-.718 1.172-.924.234-.158.352-.347.355-.567a.946.946 0 00-.165-.566.847.847 0 00-.466-.33v-.007h-.014z" fill="#FFDA00"/><path d="M105.317 1.425c-.117-.326-.293-.45-.534-.375-.293.107-.797.382-1.49.498-.307.052-1.159.114-1.165.1l-31.29 1.494c-1.166.103-2.27.103-2.653.247-.227.086-.451.515-.565.917-.114.402-.17.82-.166 1.257.004.433.066.814.176 1.14.11.326.28.44.517.34 1.028-.433 1.945-.882 2.835-1.023 1.073-.168 7.252-.447 14.042-.725.7-.03 1.407-.058 2.117-.086-.417.656-.845 1.336-1.28 2.05-.889 1.47-1.779 3.03-2.662 4.675-.165.309-.33.618-.493.93-.213.412-.427.824-.634 1.243a91.604 91.604 0 00-1.407 2.92 76.256 76.256 0 00-2.22 5.33 55.782 55.782 0 00-1.697 5.312c-.959.12-4.518.217-5.549.296-.41.034-.73.237-.969.604a2.548 2.548 0 00-.428 1.164c-.04.406.008.763.156 1.075.145.31.417.426.828.347 1.765-.343 5.951-.604 7.427-.783 1.473-.182 12.804-1.566 14.366-1.659.383-.034.697-.23.934-.59.238-.358.383-.739.442-1.144.055-.405.003-.762-.152-1.075-.158-.309-.441-.436-.848-.381l-1.507.247c-.341.055-5.12.67-8.355 1.085-1.57.203-2.773.354-2.928.375.08-.33.176-.69.286-1.085.183-.636.41-1.36.683-2.171.441-1.315.99-2.744 1.648-4.296a84.403 84.403 0 012.276-4.887 62.181 62.181 0 012.862-5.093 54.044 54.044 0 013.259-4.643c7.007-.275 12.818-.278 13.635-.584.224-.052.396-.271.51-.663a4.52 4.52 0 00.176-1.24c0-.436-.055-.814-.176-1.14l-.007-.003zM20.133.477c-6.938 1.198-12.28 3.95-13.635 7.682-.838 2.35.138 4.427 1.19 5.399.375.347.679.196.83-.371.735-2.679 3.487-6.055 10.777-7.796-3.256 4.98-7.445 13.123-7.818 16.478-.3 2.73 1.645 4.203 3.77 3.894.424-.062.806-.196 1.22-.374.228-.113.29-.278.228-.622-.642-2.805 5.624-17.583 7.648-19.757.093-.161.183-.323.276-.48 5.238-.447 6.99 2.063 4.938 8.492-2.69 8.338-8.162 14.987-15.89 15.581-9.404.625-10.776-6.662-10.217-9.076.148-.636.02-.78-.47-.502C1.895 19.63.95 21.062.613 22.8-.323 28 4.667 34.593 13.639 33.957c9.17-.642 17.046-8.073 20.425-18.648C37.595 4.145 32.774-1.786 20.133.477zM54.985 6.717c1.173.206 2.383-1.106 2.893-2.174.617-1.312.814-2.874-.245-3.032-.879-.148-2.11.67-2.776 1.84-1.082 1.851-1.044 3.156.128 3.366z" fill="#FFDA00"/><path d="M74.368 9.114c.421-.038.638.175.597.673-.052.618-1.29 4.599-5.731 5.44 1.441-2.936 3.634-5.972 5.134-6.11v-.003zm-6.91 14.99c5.097-.504 8.986-6.329 11.452-10.412.276-.433-.18-.684-.659-.642-.269.024-.548.134-.717.384-1.755 2.775-4.662 7.525-8.11 7.861-1.26.124-1.78-.408-1.67-1.669.059-.676.314-1.573.666-2.541 5.583-.289 8.652-5.88 8.862-8.321.131-1.525-.814-2.287-2.49-2.133-3.572.333-7.22 4.598-9.33 8.678-.777 1.09-1.332 1.621-2.297 1.717-.21.021-.359.007-.535-.003 2.045-3.056 3.57-6.209 3.828-7.514.28-1.511-.766-2.514-2.7-2.493-.238-.004-.314.178-.214.429.124.278.09.69.072.865-.09 1.058-1.155 3.404-2.493 5.811-.403-.134-1.262.505-1.73 1.453-.398.824-.587 1.631-.284 1.92-1.3 1.964-2.524 3.424-3.183 3.489-.39.038-.41-.426-.386-.69.142-1.645 2.649-6.927 4.49-10.022.414-.68-.5-1.112-1.397-1.023-.51.051-1.003.244-1.306.683-.652.917-2.176 3.648-3.452 6.337-.628 1.03-1.61 2.507-2.431 2.586-.449.04-.656-.316-.594-1.051.121-1.408 2.214-5.68 4.021-8.36.414-.652-.348-1.13-1.248-1.043-.538.051-1.128.309-1.5.869-.631.903-2.748 4.152-4.093 7.119-2.407 3.822-4.19 6.422-5.283 6.508-.12.01-.655.02-.597-.684.162-1.875 4.549-8.29 4.742-10.526.08-.91-.483-1.648-1.673-1.96-.579-.155-2.413-.279-2.39-.574.014-.148.121-.357.383-.642.56-.625-.144-1.096-.951-1.038-.51.038-1.035.279-1.318.794-2.075 3.39-6.744 10.996-8.876 14.327-.858 1.323.01 1.961 1.056 1.91.834-.041 1.796-.502 2.138-1.34 1.351-3.286 4.372-10.017 5.775-12.191.625.017 2.525.37 2.442 1.336-.162 1.889-5.376 7.888-5.707 11.724-.159 1.82.834 2.724 2.78 2.583 1.527-.11 2.903-1.27 4.21-2.981a57.058 57.058 0 002.13-3.012c.111 1.037.78 1.655 2.187 1.532 1.148-.103 2.135-.642 3-1.405a5.77 5.77 0 00-.2 1c-.141 1.645 1.12 2.864 2.68 2.713 2.158-.21 4.727-2.796 6.951-5.814.376.106.79.154 1.27.106a3.822 3.822 0 001.39-.419c-.3.913-.487 1.751-.525 2.456-.152 2.43 1.359 3.557 3.817 3.314h-.003zM57.965 28.12a.316.316 0 00-.321.315.31.31 0 00.093.23.313.313 0 00.23.096.3.3 0 00.229-.096.308.308 0 00.093-.226.307.307 0 00-.093-.227.324.324 0 00-.231-.093zM30.678 29.627h-.173v-.945h.152c.431 0 .648.155.648.464 0 .31-.21.48-.627.48zm.462-1.309a2.4 2.4 0 00-.573-.051h-.517v3.001h.455V30.05h.214c.314 0 .562-.079.748-.244.187-.158.276-.377.276-.652a.855.855 0 00-.258-.639.747.747 0 00-.345-.2v.004zM33.96 29.644v-.955h.163c.417 0 .63.155.63.46 0 .327-.217.495-.648.495h-.144zm1.052.052a.849.849 0 00.187-.55c0-.275-.1-.495-.294-.66-.179-.147-.465-.223-.862-.223h-.534v3.002h.455v-1.23h.08l.861 1.23h.559l-.934-1.281a.819.819 0 00.486-.292l-.004.003zM39.354 30.571c-.218.22-.486.326-.8.326-.293 0-.552-.106-.773-.322a1.08 1.08 0 01-.334-.818c0-.33.107-.58.324-.797.214-.22.48-.326.793-.326.314 0 .58.11.793.326.214.217.324.485.324.808 0 .322-.11.583-.327.803zm-.783-2.363c-.438 0-.807.155-1.12.457a1.454 1.454 0 00-.466 1.089c0 .48.172.872.514 1.168.31.267.662.401 1.048.401.441 0 .817-.15 1.127-.453.31-.302.466-.67.466-1.099 0-.43-.155-.793-.462-1.102a1.514 1.514 0 00-1.107-.46zM43.54 30.56c-.107.1-.231.17-.365.217a1.801 1.801 0 01-.51.062h-.204v-2.15h.203c.39 0 .683.093.883.275.22.203.334.47.334.8 0 .33-.113.59-.337.794l-.004.003zm-.186-2.207c-.176-.059-.417-.09-.72-.09h-.635v3.002h.624c.307 0 .545-.028.71-.082.18-.059.348-.155.51-.296.325-.285.487-.66.487-1.12 0-.46-.155-.83-.466-1.116a1.337 1.337 0 00-.514-.295l.004-.003zM47.978 30.073c0 .261-.041.454-.128.567a.63.63 0 01-.534.257.63.63 0 01-.535-.257c-.086-.12-.127-.31-.127-.567v-1.806h-.455V30.2c0 .316.1.58.3.783.22.23.493.344.817.344a1.093 1.093 0 001.117-1.127v-1.933h-.455v1.806zM50.678 28.758a1.542 1.542 0 00-.383 1.023c0 .426.152.79.456 1.092.306.303.672.45 1.107.45.286 0 .558-.072.82-.22v-.549a1.626 1.626 0 01-.214.158 1.221 1.221 0 01-.193.107.971.971 0 01-.41.078c-.31 0-.572-.11-.786-.326a1.088 1.088 0 01-.321-.797c0-.316.107-.59.32-.807.215-.223.473-.333.784-.333.282 0 .555.11.817.33v-.54a1.539 1.539 0 00-.786-.219c-.497 0-.904.185-1.214.55l.003.003zM54.223 28.693h.693v2.575h.459v-2.575h.69v-.426h-1.842v.426zM58.189 29.376h-.442v1.892h.442v-1.892zM62.337 30.571c-.217.22-.486.326-.8.326a1.08 1.08 0 01-.773-.322 1.08 1.08 0 01-.334-.818c0-.33.107-.58.324-.797.214-.22.48-.326.793-.326.314 0 .583.11.794.326.213.217.324.485.324.808 0 .322-.107.583-.328.803zm-.783-2.363c-.434 0-.807.155-1.117.457a1.454 1.454 0 00-.466 1.089c0 .48.173.872.51 1.168.311.267.663.401 1.05.401.44 0 .816-.15 1.127-.453.31-.302.465-.67.465-1.099 0-.43-.155-.793-.462-1.102a1.514 1.514 0 00-1.107-.46zM67.189 30.351l-2.204-2.29v3.207h.456v-2.101l2.2 2.283v-3.183h-.452v2.084z" fill="#FFDA00"/></svg>
